d1 $ sound "[bd:2]*4" # gain "1.2"

d2 $ sound "sd(4,8,1)" # n (irand 10) # gain (range 0.5 0.9 (rand))

d3 $ sound "hh(6,8)"

d4 $ jux (# accelerate "-0.1") $ sound "drum" >| n "5*5 2 1 3 . 3*5 0*2 4*3 1 . 2 1 3*3 5 . 1*4 1 2 3*2"

d4 $ up "0 1 2 3 4 5 6" # sound "hoover"

d5 $ sound "amencutup(7,12,5)" * (rand * 10 + 1)

d6 $ every 4 (fast 2) $ s "fm" # n (irand 30) # speed "0.5"

d6 $ every 3 (fast 2) $ s "amencutup*8" # n (irand 30)

d7 $ every 2 (fast "2 4") $ s "hoover*2" # n (irand 30) # gain "0.8"

d8 $ s "[gabba sd]*4"

d8 $ s "hh*16" # gain (range 0.6 1.1 (rand))

d9 $ s "hh*8" # gain "[0.9 0.8 1.1 0.9]*2" -- # gain "0.8 1.1 0.5 1.2"

d10 $ speed "[1 1.5 0.5 2]/8" # s "fm:14" # gain "0.85"

d10 $ speed "[1 0.5, 1.5 2 3 1]/8" # s "fm:14" # gain "0.85" # room 0.9 # size 0.9 # orbit 1

d10 $ speed "<1 0.5 2, 1.5 2 3 1>/2" # s "fm:14" # gain "0.85" # room 0.9 # size 0.9 # orbit 1

d10 $ every 4 (|+ speed "1") $ s "fm:14" # gain "0.85"

d11 $ every 3 (fast 2) $ up "0 1 3*2 0 0*2 0 0*2 0" # sound "arpy" # speed "1 2 3"
