d1 $ up "[1 2 4 1]/16"
   # sound "fm:10"
   # speed "-0.5 1 0.25 -1"
   # vowel "[a e i o u]/16"
   # pan (slow 16 $ range 0.25 0.75 $ sine)
   # room 0.9 # size 0.9
   # delay "[0.25 0.5]/8"
   # delayfeedback 0.25
   # orbit 1
